X:1
T:the Feathers
M:6/8
L:1/8
S:jasper:jasp.demon.co.uk tradtunes 2012-3-18 (from Fiddler's Companion)
R:Jig
K:G
   D |\
G2G G2g | gfe d3 | c2B A2G | FGA D3 |\
G2G G2g | gfe d2c | BAG DGF |1 G3 G2 :|2 G3G3 |]
|: D2D D2d | dcB c2B | D2D D2c | cBA B2G |\
G2G G2g | gfe d2c | BAG DGF |1 G3 G3 :|2 G3G2 |]
|: A |\
BAB G2A | BAB G2A | BAG BAG | A2D D2A |\
BAB G2A | BAB G2d | ecB AGF | G3 G2 :|
